v/0.4.11/design-resources/icons/wf_doctype-icons/file-new.svg

<?xml version="1.0" encoding="utf-8"?>
<!-- Generated by IcoMoon.io -->
<!DOCTYPE svg PUBLIC "-//W3C//DTD SVG 1.1//EN" "http://www.w3.org/Graphics/SVG/1.1/DTD/svg11.dtd">
<svg version="1.1" xmlns="http://www.w3.org/2000/svg" xmlns:xlink="http://www.w3.org/1999/xlink" width="512" height="512" viewBox="0 0 512 512">
<g>
</g>
	<path d="M288 448h-224v-384h284.812c19.406 0 35.188 15.797 35.188 35.203v156.797h32v-156.797c0-37.109-30.093-67.203-67.188-67.203h-316.812v448h256v-32zM128 160h192v32h-192v-32zM128 224v32h192v-32h-192zM128 320h160v-32h-160v32zM384 288h-64v64h-64v64h64v64h64v-64h64v-64h-64v-64z" fill="#595959" />
</svg>

<svg xmlns="http://www.w3.org/2000/svg" width="512" height="512" viewBox="0 0 512 512"><path stroke="#449FDB" d="M0 0"/><path d="M288 448H64V64h284.812C368.218 64 384 79.797 384 99.203V256h32V99.203C416 62.093 385.907 32 348.812 32H32v448h256v-32zM128 160h192v32H128v-32zm0 64v32h192v-32H128zm0 96h160v-32H128v32zm256-32h-64v64h-64v64h64v64h64v-64h64v-64h-64v-64z" fill="#595959"/></svg>
